X: 1
T: Mysteries Of Knock, The
M: 6/8
L: 1/8
R: jig
K: Amix
|:~e3 edc|efe e2f|efe edc|dBB Bcd|
~e3 edc|efe e2g|~f3 edc|fdB Bcd:|
|:ecc acc|efe e2f|ecc acc|BcB Bcd|
ecc acc|efe e2g|~f3 edc|fdB Bcd:|
